source/svgs/bowtie/uEA3E-recycle-bin-restore.svg

<svg xmlns="http://www.w3.org/2000/svg" viewBox="0 0 448 448"><path d="M288 416h-224v-96h-32v96c0 17.6 14.4 32 32 32h224c17.6 0 32-14.4 32-32v-256h-32v256zm-192-352h-39.4c27-23.4 66.4-23.8 90.2 0 25 25 23.3 67.2-3.6 94.1l-88.4 88.4 22.6 22.6 88.4-88.4c39.4-39.4 41-101.9 3.6-139.4-36.7-36.8-97.9-35.8-137.4 1.8v-43.1h-32v96h96v-32zm286.8 104.2l13.7-13.7c6-6 9.4-14.1 9.4-22.6s-3.3-16.6-9.4-22.6l-67.9-67.9c-6-6-14.1-9.4-22.6-9.4s-16.6 3.3-22.6 9.4l-13.7 13.6-50.4-50.3-22.6 22.6 224 224 22.6-22.6-60.5-60.5zm-76.9-104.2l67.9 67.9-13.7 13.7-67.9-67.9 13.7-13.7z"/></svg>

<svg xmlns="http://www.w3.org/2000/svg" viewBox="0 0 448 448"><path d="M288 416H64v-96H32v96c0 17.6 14.4 32 32 32h224c17.6 0 32-14.4 32-32V160h-32v256zM96 64H56.6c27-23.4 66.4-23.8 90.2 0 25 25 23.3 67.2-3.6 94.1l-88.4 88.4 22.6 22.6 88.4-88.4c39.4-39.4 41-101.9 3.6-139.4C132.7 4.5 71.5 5.5 32 43.1V0H0v96h96V64zm286.8 104.2l13.7-13.7c6-6 9.4-14.1 9.4-22.6s-3.3-16.6-9.4-22.6l-67.9-67.9c-6-6-14.1-9.4-22.6-9.4s-16.6 3.3-22.6 9.4L269.7 55 219.3 4.7l-22.6 22.6 224 224 22.6-22.6-60.5-60.5zM305.9 64l67.9 67.9-13.7 13.7-67.9-67.9L305.9 64z"/></svg>
